!!!COM: Beethoven
!!!OTL: Acht Variationen uber "Une fievre brulante" aus "Richard Coeur de Lion" von A.E.M. Gretry
!!!Variation: Variation 4 a
**function	**harm	**kern	**kern
*	*	*clefG2	*clefG2
*	*	*k[b-e-a-]	*k[b-e-a-]
*M3/4	*M3/4	*M3/4	*M3/4
*c:	*c:	*c:	*c:
4T	4i	4r	4g
=129	=129	=129	=129
2.T	2.i	2.c 2.e-	(4g
.	.	.	4ee-
.	.	.	4cc)
=130	=130	=130	=130
2.T	2.ivc	2.c 2.f 2.a-	(4cc
.	.	.	4ff
.	.	.	4ee-
=131	=131	=131	=131
2.T	2.iiom7d	2.c 2.d 2.f 2.a-	4dd
.	.	.	4cc
.	.	.	4b)
=132	=132	=132	=132
2T	2i	2c 2e- 2g	(4dd
.	.	.	4cc)
4T	4ib	4e- 4g	4cc
=133	=133	=133	=133
2P	2iiom7b	(2f 2a-	(2cc 2dd
4P	4V7c/iv	4g 4b-	4cc 4ee
=134	=134	=134	=134
2P	2ivb	2a-	2cc 2ff
4P	4Vb/iv	4e) 4g	4cc) 4gg
=135	=135	=135	=135
2P	2iv	4f 4a-	(8ccL 8bb-
.	.	.	8aa-J
.	.	4r	8ggL
.	.	.	8ffJ
*	*	*^	*
4P	4iiob	4F	4f	8ee-L
.	.	.	.	8ddJ)
=136	=136	=136	=136	=136
4D	4Cc	(4e-	4.G	(4cc
4D	4V	8d)	.	8b)
.	.	8r	8r	8r
*	*	*v	*v	*
*-	*-	*-	*-
